icons/file-binary-24.svg

<svg width="24" height="24" viewBox="0 0 24 24" fill="none" xmlns="http://www.w3.org/2000/svg">
<path fill-rule="evenodd" clip-rule="evenodd" d="M3 3C3 1.89543 3.89543 1 5 1H14.9822C15.5127 1 16.0214 1.21071 16.3964 1.58579L20.4142 5.60355C20.7893 5.97863 21 6.48733 21 7.01777V21C21 22.1046 20.1046 23 19 23H4.75C4.33579 23 4 22.6642 4 22.25C4 21.8358 4.33579 21.5 4.75 21.5H19C19.2761 21.5 19.5 21.2761 19.5 21V8.5H15.5C14.3954 8.5 13.5 7.60457 13.5 6.5V2.5H5C4.72386 2.5 4.5 2.72386 4.5 3V9.25C4.5 9.66421 4.16421 10 3.75 10C3.33579 10 3 9.66421 3 9.25V3ZM15 2.50032V6.5C15 6.77614 15.2239 7 15.5 7H19.4997C19.4952 6.87384 19.4431 6.75379 19.3536 6.66421L15.3358 2.64645C15.2462 2.55687 15.1262 2.5048 15 2.50032Z" fill="#24292E"/>
<path fill-rule="evenodd" clip-rule="evenodd" d="M0 13.75C0 12.7835 0.783502 12 1.75 12H4.75C5.7165 12 6.5 12.7835 6.5 13.75V17.75C6.5 18.7165 5.7165 19.5 4.75 19.5H1.75C0.783502 19.5 0 18.7165 0 17.75V13.75ZM1.75 13.5C1.61193 13.5 1.5 13.6119 1.5 13.75V17.75C1.5 17.8881 1.61193 18 1.75 18H4.75C4.88807 18 5 17.8881 5 17.75V13.75C5 13.6119 4.88807 13.5 4.75 13.5H1.75Z" fill="#24292E"/>
<path d="M9 12C8.58579 12 8.25 12.3358 8.25 12.75C8.25 13.1642 8.58579 13.5 9 13.5H10.5V18H9C8.58579 18 8.25 18.3358 8.25 18.75C8.25 19.1642 8.58579 19.5 9 19.5H13.5C13.9142 19.5 14.25 19.1642 14.25 18.75C14.25 18.3358 13.9142 18 13.5 18H12V12.75C12 12.3358 11.6642 12 11.25 12H9Z" fill="#24292E"/>
</svg>

<svg xmlns="http://www.w3.org/2000/svg" width="24" height="24" viewBox="0 0 24 24"><path fill-rule="evenodd" d="M3 3a2 2 0 012-2h9.982a2 2 0 011.414.586l4.018 4.018A2 2 0 0121 7.018V21a2 2 0 01-2 2H4.75a.75.75 0 010-1.5H19a.5.5 0 00.5-.5V8.5h-4a2 2 0 01-2-2v-4H5a.5.5 0 00-.5.5v6.25a.75.75 0 01-1.5 0V3zm12-.5v4a.5.5 0 00.5.5h4a.5.5 0 00-.146-.336l-4.018-4.018A.5.5 0 0015 2.5z"/><path fill-rule="evenodd" d="M0 13.75C0 12.784.784 12 1.75 12h3c.966 0 1.75.784 1.75 1.75v4a1.75 1.75 0 01-1.75 1.75h-3A1.75 1.75 0 010 17.75v-4zm1.75-.25a.25.25 0 00-.25.25v4c0 .138.112.25.25.25h3a.25.25 0 00.25-.25v-4a.25.25 0 00-.25-.25h-3z"/><path d="M9 12a.75.75 0 000 1.5h1.5V18H9a.75.75 0 000 1.5h4.5a.75.75 0 000-1.5H12v-5.25a.75.75 0 00-.75-.75H9z"/></svg>
